images/clubFoundationPlaceholder.svg

<svg xmlns="http://www.w3.org/2000/svg" width="179" height="250" viewBox="0 0 179 250">
    <path fill-opacity=".201" d="M166.138 0C173.241 0 179 5.643 179 12.605v224.79c0 6.962-5.759 12.605-12.862 12.605H12.862C5.759 250 0 244.357 0 237.395V12.605C0 5.643 5.759 0 12.862 0zm0 6H12.862C9.046 6 6 8.985 6 12.605v224.79c0 3.62 3.046 6.605 6.862 6.605h153.276c3.816 0 6.862-2.985 6.862-6.605V12.605C173 8.985 169.954 6 166.138 6"/>
    <path fill-opacity=".331" d="M82.234 156.969q2.438-3 3.539-6.399 1.102-3.398 1.102-7.992 0-2.859-.633-4.453t-1.758-1.594q-1.265 0-3.187 2.578-1.078 1.407-1.735 2.203-3.14 3.657-5.859 5.086t-6.141 1.43q-5.624 0-9.14-4.172t-3.516-10.781q0-6.703 3.61-10.945t9.14-4.242q4.078 0 8.719 2.929 4.641 2.93 5.484 2.93.797 0 1.313-.445.516-.446.516-1.196 0-1.078-3.75-4.406-1.126-.891-1.735-1.406-2.015-1.782-3.117-4.313t-1.102-5.484q0-6.141 4.172-9.703 4.172-3.563 11.391-3.563 7.359 0 11.461 3.586 4.101 3.586 4.101 10.055 0 2.578-1.195 5.133-1.195 2.554-3.305 4.383-.562.468-1.547 1.312-3.75 3.234-3.75 4.406 0 .75.516 1.196t1.313.445q.843 0 5.484-2.93 4.641-2.929 8.719-2.929 5.531 0 9.14 4.242t3.61 10.945q0 6.609-3.492 10.781t-9.164 4.172q-3.469 0-6.211-1.453t-5.789-5.063l-1.641-2.015q-1.969-2.766-3.235-2.766-1.078 0-1.71 1.453-.633 1.454-.633 4.032 0 5.343 1.078 8.789t3.469 6.164z"/>
</svg>

<?xml version="1.0" encoding="UTF-8"?>
<!DOCTYPE svg PUBLIC "-//W3C//DTD SVG 1.1//EN" "http://www.w3.org/Graphics/SVG/1.1/DTD/svg11.dtd">
<svg version="1.1" xmlns="http://www.w3.org/2000/svg" xmlns:xlink="http://www.w3.org/1999/xlink" x="0" y="0" width="179" height="250" viewBox="0, 0, 179, 250">
  <g id="Clubs_dark)" transform="translate(-0, -0)">
    <path d="M166.138,0 C173.241,0 179,5.643 179,12.605 L179,237.395 C179,244.357 173.241,250 166.138,250 L12.862,250 C5.759,250 0,244.357 0,237.395 L0,12.605 C0,5.643 5.759,0 12.862,0 L166.138,0 z M166.138,6 L12.862,6 C9.046,6 6,8.985 6,12.605 L6,237.395 C6,241.015 9.046,244 12.862,244 L166.138,244 C169.954,244 173,241.015 173,237.395 L173,12.605 C173,8.985 169.954,6 166.138,6 z" fill="#000000" fill-opacity="0.201"/>
    <path d="M82.234,156.969 Q84.672,153.969 85.773,150.57 Q86.875,147.172 86.875,142.578 Q86.875,139.719 86.242,138.125 Q85.609,136.531 84.484,136.531 Q83.219,136.531 81.297,139.109 Q80.219,140.516 79.562,141.312 Q76.422,144.969 73.703,146.398 Q70.984,147.828 67.562,147.828 Q61.938,147.828 58.422,143.656 Q54.906,139.484 54.906,132.875 Q54.906,126.172 58.516,121.93 Q62.125,117.688 67.656,117.688 Q71.734,117.688 76.375,120.617 Q81.016,123.547 81.859,123.547 Q82.656,123.547 83.172,123.102 Q83.688,122.656 83.688,121.906 Q83.688,120.828 79.938,117.5 Q78.812,116.609 78.203,116.094 Q76.188,114.312 75.086,111.781 Q73.984,109.25 73.984,106.297 Q73.984,100.156 78.156,96.594 Q82.328,93.031 89.547,93.031 Q96.906,93.031 101.008,96.617 Q105.109,100.203 105.109,106.672 Q105.109,109.25 103.914,111.805 Q102.719,114.359 100.609,116.188 Q100.047,116.656 99.062,117.5 Q95.312,120.734 95.312,121.906 Q95.312,122.656 95.828,123.102 Q96.344,123.547 97.141,123.547 Q97.984,123.547 102.625,120.617 Q107.266,117.688 111.344,117.688 Q116.875,117.688 120.484,121.93 Q124.094,126.172 124.094,132.875 Q124.094,139.484 120.602,143.656 Q117.109,147.828 111.438,147.828 Q107.969,147.828 105.227,146.375 Q102.484,144.922 99.438,141.312 Q98.828,140.562 97.797,139.297 Q95.828,136.531 94.562,136.531 Q93.484,136.531 92.852,137.984 Q92.219,139.438 92.219,142.016 Q92.219,147.359 93.297,150.805 Q94.375,154.25 96.766,156.969 z" fill="#000000" fill-opacity="0.331"/>
  </g>
</svg>
